static/logos/square-glyph-color.svg

<svg width="50" height="50" viewBox="0 0 50 50" fill="none" xmlns="http://www.w3.org/2000/svg">
<g clip-path="url(#clip0_1_954)">
<path d="M41.6656 0H8.33443C3.75181 0 0 3.74993 0 8.33443V41.6665C0 46.2473 3.75181 49.9981 8.33443 49.9981H41.6665C46.2491 49.9981 50.0009 46.2482 50.0009 41.6665V8.33443C50 3.74993 46.2482 0 41.6656 0ZM40.9081 38.2587C40.9081 39.7154 39.7154 40.9043 38.2577 40.9043H11.7404C10.2836 40.9043 9.09005 39.7145 9.09005 38.2587V11.7423C9.09005 10.2855 10.2836 9.09193 11.7404 9.09193H38.2577C39.7154 9.09193 40.9081 10.2855 40.9081 11.7423V38.2587ZM31.8199 30.3021C31.8199 31.1376 31.1376 31.8171 30.3068 31.8171H19.7008C18.8671 31.8171 18.1876 31.1366 18.1876 30.3021V19.697C18.1876 18.8634 18.8671 18.1829 19.7008 18.1829H30.3058C31.1376 18.1829 31.8189 18.8643 31.8189 19.697V30.3021H31.8199Z" fill="black"/>
</g>
<defs>
<clipPath id="clip0_1_954">
<rect width="50" height="49.9981" fill="white"/>
</clipPath>
</defs>
</svg>

<svg xmlns="http://www.w3.org/2000/svg" width="64" height="64" fill="none" viewBox="0 0 50 50"><g clip-path="url(#a)"><path fill="#000" d="M41.666 0H8.334C3.752 0 0 3.75 0 8.334v33.333c0 4.58 3.752 8.331 8.334 8.331h33.333c4.582 0 8.334-3.75 8.334-8.331V8.334C50 3.75 46.248 0 41.666 0Zm-.758 38.259a2.655 2.655 0 0 1-2.65 2.645H11.74a2.656 2.656 0 0 1-2.65-2.645V11.742a2.66 2.66 0 0 1 2.65-2.65h26.518a2.659 2.659 0 0 1 2.65 2.65V38.26Zm-9.088-7.957c0 .836-.682 1.515-1.513 1.515H19.7c-.834 0-1.513-.68-1.513-1.515V19.697c0-.834.68-1.514 1.513-1.514h10.605c.832 0 1.513.681 1.513 1.514v10.605Z"/></g><defs><clipPath id="a"><path fill="#fff" d="M0 0h50v49.998H0z"/></clipPath></defs></svg>
